X: 121
T: Qing an I ask (for) the peace
%%abc-version 2.0
%%abcx-abcm2ps-target-version 5.9.1 (29 Sep 2008)
%%abc-creator hum2abc beta
%%abcx-conversion-date 2013/10/02 07:44:27
%%abc-edited-by Helmut Schaffrath
%%humdrum-veritas 2023159525
%%humdrum-veritas-data 668037585
%%continueall 1
%%barnumbers 0
L: 1/8
M: 2/4
K: C
A2d2 [I:setbarnb 1]| 
G3E | 
A2d2 | 
G2A2 | 
dc2d | 
g2e c | 
d4- | 
d4 | 
dc2d | 
e2a2 | 
AA2d | 
A GE2 | 
a C C D | 
E GE2 | 
D4 | 
D4 |]  



